X: 24
T: Mungo
R: reel
M: C|
L: 1/8
Z: 2010 John Chambers <jc:trillian.mit.edu>
B: Longman ed. "Twenty Four Country Dances", p.36 London 1770
K: D
|: Add2 Aee2 | Aagf e/d/e/f/ e2 | Add2 Aee2 | Aagf f2e2 :|
|: AB=cA Bgg2 | BcdB caa2 | aAA2 gAA2 | Bg f/e/d/c/ d2D2 :|
